<?xml version="1.0" encoding="UTF-8"?>
<map version="1.10" tiledversion="1.12.0" orientation="orthogonal" renderorder="right-down" width="10" height="10" tilewidth="16" tileheight="16" infinite="0" nextlayerid="6" nextobjectid="11">
 <editorsettings>
  <export target="2floor.json" format="json"/>
 </editorsettings>
 <tileset firstgid="1" name="terrian" tilewidth="16" tileheight="16" tilecount="4096" columns="64">
  <image source="terrian.png" width="1024" height="1024"/>
 </tileset>
 <tileset firstgid="4097" name="bed" tilewidth="32" tileheight="32" tilecount="1" columns="0">
  <grid orientation="orthogonal" width="1" height="1"/>
  <tile id="0">
   <image source="bed.png" width="32" height="32"/>
  </tile>
 </tileset>
 <layer id="1" name="Ground1" width="10" height="10" locked="1">
  <data encoding="csv">
450,450,450,450,450,450,450,450,450,450,
450,450,450,450,450,450,450,450,450,450,
450,450,450,450,450,450,450,450,450,450,
450,450,450,450,450,450,450,450,450,450,
450,450,450,450,450,450,450,450,450,450,
450,450,450,450,450,450,450,450,450,450,
450,450,450,450,450,450,450,450,450,450,
450,450,450,450,450,450,450,450,450,450,
450,450,450,450,450,450,450,450,450,450,
450,450,450,450,450,450,450,450,450,450
</data>
 </layer>
 <layer id="3" name="Gound2" width="10" height="10" locked="1">
  <data encoding="csv">
0,0,0,0,0,0,0,0,0,0,
0,0,0,0,0,0,0,0,0,0,
0,0,0,0,0,0,0,0,0,0,
0,0,0,0,0,0,0,0,0,0,
0,0,0,0,0,0,0,0,0,0,
0,0,0,0,0,0,0,0,0,0,
0,0,0,2230,0,0,0,0,0,0,
0,0,0,2284,2285,2286,0,0,0,0,
0,0,0,2348,2349,2350,0,0,0,0,
2415,2416,2417,2412,2413,2414,0,0,0,0
</data>
 </layer>
 <layer id="2" name="Walls" width="10" height="10">
  <data encoding="csv">
642,646,646,646,646,646,646,646,646,582,
644,744,745,746,0,0,0,0,0,650,
644,808,809,810,0,0,0,0,0,2147484292,
644,872,873,874,0,0,0,0,0,2147484292,
642,646,646,646,646,582,0,0,0,2147484292,
644,616,617,2158,2159,647,0,0,0,2147484292,
644,680,681,2222,2223,2102,0,0,0,2147484292,
644,0,4097,0,0,0,0,0,0,2147484292,
644,0,0,0,0,0,0,0,0,2147484292,
580,581,581,581,581,581,581,581,581,579
</data>
 </layer>
 <layer id="4" name="Above" width="10" height="10" locked="1">
  <data encoding="csv">
0,0,0,0,0,811,0,0,0,0,
0,0,1268,1269,0,875,0,0,0,0,
0,0,1332,1333,0,0,0,0,0,0,
0,1266,0,0,0,0,0,0,0,0,
0,0,0,0,2167,0,0,0,0,0,
0,0,0,0,0,0,0,0,0,0,
0,0,0,0,2229,0,0,0,0,0,
0,0,0,0,0,0,0,0,0,0,
0,0,0,0,0,0,0,0,0,0,
0,0,0,0,0,0,0,0,0,0
</data>
 </layer>
 <objectgroup id="5" name="Triggers">
  <object id="1" name="ladder_to_3floor" type="ladder" x="80" y="0.5" width="16" height="18.5"/>
  <object id="3" name="ladder_to_house" type="ladder" x="142" y="16" width="18.5" height="16"/>
  <object id="10" name="bed" x="18.3333" y="87" width="60" height="47.6667"/>
 </objectgroup>
</map>
